brandFactory_export/2.Regular/Atencion al cliente_Ayuda_2Regular.svg

<?xml version="1.0" encoding="UTF-8"?>
<svg width="24px" height="24px" viewBox="0 0 24 24" version="1.1" xmlns="http://www.w3.org/2000/svg" xmlns:xlink="http://www.w3.org/1999/xlink">
    <title>2.Regular/Atencion al cliente_Ayuda_2Regular</title>
    <g id="Symbols" stroke="none" stroke-width="1" fill="none" fill-rule="evenodd">
        <g id="2.Regular/Atencion-al-cliente_Ayuda_2Regular" fill="#5CB615" fill-rule="nonzero">
            <path d="M10.8067227,16.712605 C12.4134454,16.712605 13.6537815,17.1428571 14.497479,17.9932773 C15.3411765,18.8436975 15.7680672,20.087395 15.7680672,21.7008403 L15.7680672,22.9478992 C15.7680672,23.3210084 15.4689076,23.6201681 15.0957983,23.6201681 L0.672268908,23.6201681 C0.302521009,23.6201681 2.64119393e-10,23.3176471 2.64119393e-10,22.9478992 L2.64119393e-10,21.7008403 C2.64119393e-10,20.087395 0.426890757,18.8403361 1.27058824,17.9932773 C2.11428571,17.1462185 3.35798319,16.712605 4.96134454,16.712605 L10.8067227,16.712605 Z M10.810084,18.0571429 L4.96134454,18.0571429 C3.72773109,18.0571429 2.80672269,18.3529412 2.22521008,18.9411765 C1.64369748,19.5294118 1.34453782,20.4571429 1.34453782,21.7008403 L1.34453782,22.2756303 L14.4235294,22.2756303 L14.4235294,21.7008403 C14.4235294,20.4571429 14.1277311,19.5260504 13.5462185,18.9411765 C12.9647059,18.3563025 12.0436975,18.0571429 10.810084,18.0571429 Z M7.88571429,6.75630252 C9.34453782,6.75630252 10.4806723,7.17983193 11.2672269,8.01008403 C12.0067227,8.79327731 12.3831933,9.88571429 12.3831933,11.2537815 C12.3831933,12.6218487 12.0067227,13.7142857 11.2672269,14.497479 C10.4806723,15.3344538 9.34117647,15.7546218 7.88571429,15.7546218 C6.42689076,15.7546218 5.2907563,15.3344538 4.50420168,14.5008403 C3.76134454,13.7176471 3.38823529,12.6252101 3.38823529,11.2571429 C3.38823529,9.88907563 3.76470588,8.79663866 4.50420168,8.01344538 C5.2907563,7.17983193 6.42689076,6.75630252 7.88571429,6.75630252 Z M7.88571429,8.10084034 C5.79159664,8.10084034 4.73277311,9.16302521 4.73277311,11.2537815 C4.73277311,13.3445378 5.79495798,14.4067227 7.88571429,14.4067227 C9.97647059,14.4067227 11.0386555,13.3445378 11.0386555,11.2537815 C11.0386555,9.16302521 9.97647059,8.10084034 7.88571429,8.10084034 Z M21.6941176,1.82076576e-13 C22.7630252,1.82076576e-13 23.6302521,0.867226891 23.6302521,1.93613445 L23.6302521,6.61848739 C23.6302521,7.68739496 22.7630252,8.55462185 21.6941176,8.55462185 L17.7478992,8.55462185 C17.3714286,9.14957983 16.5747899,10.4033613 16.4168067,10.6420168 C16.0672269,11.1764706 15.5697479,11.4991597 15.1193277,11.4991597 C15.0756303,11.4991597 15.0285714,11.4957983 14.9848739,11.4890756 C14.487395,11.4151261 14.0840336,10.9344538 14.0840336,10.4235294 L14.0840336,8.5512605 L13.9529412,8.5512605 C12.907563,8.5512605 12.1176471,7.71764706 12.1176471,6.61512605 L12.1176471,1.93613445 C12.1176471,0.867226891 12.9848739,1.82076576e-13 14.0537815,1.82076576e-13 L21.6941176,1.82076576e-13 Z M21.6941176,1.34453782 L14.0537815,1.34453782 C13.7277311,1.34453782 13.4621849,1.61008403 13.4621849,1.93613445 L13.4621849,6.61848739 C13.4621849,6.91428571 13.6134454,7.21008403 13.9529412,7.21008403 L14.7563025,7.21008403 C15.1260504,7.21008403 15.4285714,7.51260504 15.4285714,7.88235294 L15.4285714,9.69411765 C15.8218487,9.08235294 16.8,7.5394958 16.810084,7.52268908 C16.9344538,7.32773109 17.1462185,7.21008403 17.3781513,7.21008403 L21.6941176,7.21008403 C22.0201681,7.21008403 22.2857143,6.94453782 22.2857143,6.61848739 L22.2857143,1.93613445 C22.2857143,1.61008403 22.0201681,1.34453782 21.6941176,1.34453782 Z M18.0336134,5.7210084 C18.3250713,5.7210084 18.5613445,5.95728166 18.5613445,6.2487395 C18.5613445,6.54019733 18.3250713,6.77647059 18.0336134,6.77647059 C17.7421556,6.77647059 17.5058824,6.54019733 17.5058824,6.2487395 C17.5058824,5.95728166 17.7421556,5.7210084 18.0336134,5.7210084 Z M18.0369748,1.76806723 C18.9008403,1.76806723 19.4789916,2.48739496 19.4789916,3.15630252 C19.4789916,3.72773109 19.1697479,3.92268908 18.9243697,4.17142857 C18.8201681,4.27563025 18.5378151,4.46386555 18.5378151,4.69243697 L18.5378151,4.89747899 C18.5445378,5.17647059 18.3226891,5.40840336 18.0470588,5.41176471 C18.0403361,5.41512605 18.0369748,5.41512605 18.0336134,5.41512605 C17.7546218,5.41512605 17.5294118,5.18655462 17.5327731,4.90756303 L17.5327731,4.69579832 C17.5327731,4.15462185 17.8857143,3.84201681 18.1210084,3.61344538 C18.2151261,3.52268908 18.4470588,3.37478992 18.4470588,3.15966387 C18.4470588,3.02184874 18.3663866,2.72268908 18.0336134,2.72268908 C17.7008403,2.72268908 17.5327731,2.99159664 17.5327731,3.15294118 C17.5327731,3.42857143 17.307563,3.65378151 17.0319328,3.65378151 C16.7563025,3.65378151 16.5310924,3.42857143 16.5310924,3.15294118 C16.5310924,2.31260504 17.1159664,1.76806723 18.0369748,1.76806723 Z" id="Atencion-al-cliente_Ayuda_2Regular"></path>
        </g>
    </g>
</svg>

<svg width="24" height="24" viewBox="0 0 24 24" xmlns="http://www.w3.org/2000/svg"><path d="M10.807 16.713c1.606 0 2.847.43 3.69 1.28.844.85 1.271 2.094 1.271 3.708v1.247a.67.67 0 01-.672.672H.672A.674.674 0 010 22.948V21.7c0-1.614.427-2.86 1.27-3.708.844-.847 2.088-1.28 3.691-1.28h5.846zm.003 1.344H4.961c-1.233 0-2.154.296-2.736.884-.581.588-.88 1.516-.88 2.76v.575h13.079V21.7c0-1.244-.296-2.175-.878-2.76-.581-.585-1.502-.884-2.736-.884zm-2.924-11.3c1.459 0 2.595.423 3.381 1.253.74.783 1.116 1.876 1.116 3.244 0 1.368-.376 2.46-1.116 3.243-.786.837-1.926 1.258-3.381 1.258-1.46 0-2.595-.42-3.382-1.254-.743-.783-1.116-1.876-1.116-3.244 0-1.368.377-2.46 1.116-3.244.787-.833 1.923-1.257 3.382-1.257zm0 1.344c-2.094 0-3.153 1.062-3.153 3.153 0 2.09 1.062 3.153 3.153 3.153 2.09 0 3.153-1.062 3.153-3.153S9.976 8.1 7.886 8.1zM21.694 0c1.069 0 1.936.867 1.936 1.936v4.682a1.937 1.937 0 01-1.936 1.937h-3.946a273.42 273.42 0 01-1.331 2.087c-.35.534-.847.857-1.298.857a.905.905 0 01-.134-.01c-.498-.074-.901-.555-.901-1.065V8.55h-.131c-1.045 0-1.835-.833-1.835-1.936V1.936C12.118.867 12.985 0 14.054 0h7.64zm0 1.345h-7.64a.592.592 0 00-.592.591v4.682c0 .296.151.592.49.592h.804c.37 0 .673.303.673.672v1.812c.393-.612 1.371-2.155 1.381-2.171a.671.671 0 01.568-.313h4.316a.592.592 0 00.592-.592V1.936a.592.592 0 00-.592-.591zm-3.66 4.376a.528.528 0 110 1.055.528.528 0 010-1.055zm.003-3.953c.864 0 1.442.72 1.442 1.388 0 .572-.31.767-.555 1.015-.104.105-.386.293-.386.521v.205a.5.5 0 01-.49.515c-.008.003-.011.003-.014.003a.501.501 0 01-.501-.507v-.212c0-.541.353-.854.588-1.083.094-.09.326-.238.326-.453 0-.138-.08-.437-.413-.437-.333 0-.501.269-.501.43a.502.502 0 01-1.002 0c0-.84.585-1.385 1.506-1.385z" fill="#5CB615" fill-rule="nonzero"/></svg>
